X:11
T:Chatam Hornpipe. JBu.11
T:Chatham Hornpipe,aka. JBu.11
O:England,South Yorkshire
S:Joshua Burnett’s MS,c1835,S.Yorkshire
M:C
L:1/8
Q:1/2=90
R:.hornpipe
W:Tune incomplete in ms, page missing.
Z:vmp.R.Greig.2010
K:D
A2|d2(cB) AGFE|D2EFG2AG|F2(dc)B2(ef)|(gf)ed (dc)BA|
d2(cB) (AG)FE|D2EFG2AG|F2.d.c (Bg) .e.c|d2d2d2:|
|:AA|A2fAA2fA|]

